svgs/sharp-solid/signal-good.svg

<svg xmlns="http://www.w3.org/2000/svg" viewBox="0 0 640 512"><!--! Font Awesome Pro 6.6.0 by @fontawesome - https://fontawesome.com License - https://fontawesome.com/license (Commercial License) Copyright 2024 Fonticons, Inc. --><path d="M352 192l0 32 0 256 0 32-64 0 0-32 0-256 0-32 64 0zM224 288l0 32 0 160 0 32-64 0 0-32 0-160 0-32 64 0zM96 416l0 64 0 32-64 0 0-32 0-64 0-32 64 0 0 32z"/></svg>

<svg xmlns="http://www.w3.org/2000/svg" viewBox="0 0 640 512"><!--! Font Awesome Pro 6.5.2 by @fontawesome - https://fontawesome.com License - https://fontawesome.com/license (Commercial License) Copyright 2024 Fonticons, Inc. --><path d="M352 192v32V480v32H288V480 224 192h64zM224 288v32V480v32H160V480 320 288h64zM96 416v64 32H32V480 416 384H96v32z"/></svg>
